src/assets/svg/TwitterLogo.svg

<svg width="32" height="32" viewBox="0 0 32 32" fill="none" xmlns="http://www.w3.org/2000/svg">
<path d="M16.0007 11.0005C16.0007 8.25045 18.3132 5.96295 21.0632 6.00045C22.0262 6.01157 22.9656 6.3006 23.7683 6.8328C24.571 7.365 25.203 8.11771 25.5882 9.00045H30.0007L25.9632 13.038C25.7026 17.0937 23.9073 20.8979 20.9422 23.6773C17.9771 26.4566 14.0648 28.0025 10.0007 28.0005C6.00068 28.0005 5.00068 26.5005 5.00068 26.5005C5.00068 26.5005 9.00068 25.0005 11.0007 22.0005C11.0007 22.0005 3.00068 18.0005 5.00068 7.00045C5.00068 7.00045 10.0007 12.0005 16.0007 13.0005V11.0005Z" stroke="#858584" stroke-width="2" stroke-linecap="round" stroke-linejoin="round"/>
</svg>

<!-- Generated by IcoMoon.io -->
<svg version="1.1" xmlns="http://www.w3.org/2000/svg" width="32" height="32" viewBox="0 0 32 32">
<path fill="none" stroke-linejoin="round" stroke-linecap="round" stroke-miterlimit="4" stroke-width="2" stroke="#000" d="M16.001 11.001c0-2.75 2.313-5.038 5.063-5 0.963 0.011 1.902 0.3 2.705 0.832s1.435 1.285 1.82 2.168h4.412l-4.038 4.038c-0.261 4.056-2.056 7.86-5.021 10.639s-6.877 4.325-10.941 4.323c-4 0-5-1.5-5-1.5s4-1.5 6-4.5c0 0-8-4-6-15 0 0 5 5 11 6v-2z"></path>
</svg>
